src/images/deer.svg

<svg xmlns="http://www.w3.org/2000/svg" style="isolation:isolate" viewBox="0 0 636 833.5"><defs><clipPath id="a"><path d="M0 0h636v833.5H0z"/></clipPath></defs><g clip-path="url(#a)"><path fill="none" stroke="#000" stroke-linecap="square" stroke-miterlimit="3" d="M94.503 39.224L41.087 169.658m-.587-.158l10 61.5m0-.5l30 78.5m14-268.5l-36 125m-18 6l19-6.5m0 0L72 223m-13.5-58L50 229.5m22-7l23 10m-23-10l50-23.5m0 .5l25-47m0-.5l68-54m0 .5l-53 58m0 0L133 211m0 0l15.5-60M122 199l11 11.5m0 0l-38.5 21m2-.5l24.5-32m-24 33l-21 11m0 0l-25-13.5M77.5 243l2.5 66.5M-1 254l25 50M-.5 253l31 46m0-.5l50 11.5m0 0l-47-17.5m0 0l-34-40m25 51.5L132 367m0 0l-52.5-57.5m0 0L145 351m0 0l67.5 30.5m0 0l6.5-13m10 6l-28-18m0 0l-57.5-7m0 0L97 309m0 0l-19.5-68M132 366l81 15.5m0 0l7 3m0 0l28.5 27m0 0L248 425m0 0l10 16.5m0 0l4.5-41m0 0l-13 9.5m13-9.5l15.5-13m0 0l-48.5-13m0 0L263 401m-33.5-28l10 29.5m-39.5-46L159 294m0 0l7-78m0 0l10.5 82m0 0l48 58m0-.5L278 389m-101.5-91.5l18 50.5m23-59l19.5 75m-20-74.5l27-65.5m0 0l-13.5 71m0 0l18 59m0 0l29 34.5m-60-99l13.5 7m0-.5l1.5 50.5m26 94.5l41.5-38m0 0l-37-3.5m37 3l-9-10m0 0l-13.5-4.5M258 441l-8.5 4.5m0 0L241 442m0 0l-65.5-54.5m0 0l-20-1m0 0l-1.5 21m0 0l15 38m0 0l23 25.5m0 0l38.5 15m0 0l21.5 19.5m0 0l-6.5-17m0 0L243 467m0 0l6.5-22.5m-7-2l-18 14.5m.5 0l19.5 10m-.5 0l28 1.5m0 0l-15.5-28M215 444l7 8m0 0l29 52.5M214 444l16 42m-16.5-41.5L191 469m23-25.5l-45 1m0 0l-1-43.5m0 0l7.5-12.5M155 388l14 12m0 0l-14 7m14-7l14 34.5m-.5 0l13-31.5M183 435.5l44-6m-44 6l30.5 8.5m86-41H327m0-.5l10.5-9.5m0 0l12.5-5m0 0l-4 28.5m0 0l-9.5-22.5m-25 9L272 468.5m0 0l28-66M257.5 441l23.5 6m30.5-44l2.5 94.5m0 0L273 467m0 0l4 23m0 0l12 24.5m0 0l25-17.5m0 0l44.5-32.5m.5 0L337.5 448m0 0l-24 49m24-49.5l-26.5-46M272.5 467L251 505.5m0 0l14 1m0 0l12.5-17m-11 16.5l-13 24.5m-2-24.5l5.5 68.5m8-70l24.5 10.5m0 0L266 565.5m0 0l-12-36m34.5-14.5l25.5 6.5m0-.5l24-9.5m0 0l-24.5-16m24.5 15l14.5 10m0 0l21.5-38m.5 0l-15.5-19m0 0l-12.5-48m-35.5-12l39 24.5m.5.5L381 413m0 0l-34.5 3.5m3.5-28l31.5 25.5m1-1l11-25.5m0 0L379 377m0 0l-4-18m0 0l-27 30.5m0 0l32-13m14 11l-45 1m42-33.5l2.5 33.5m0 0l23-21.5m0 0l80.5-28m-122 20l24-60.5m0 0l-10-58m0 0l22 60m0 0l-20 55m0 0l2.5-43.5m-1.5 43.5l24-10.5m.5 0l50.5-41.5m0 0l19.5-34.5m0 0l8-53m0 0l6.5 54.5m0 0L481.5 310m0 0L457 332.5m0 0l9.5-28.5m-9 28.5l-40.5 11m-10 6l17.5-5m0 0L497 338m0 0l36.5-66.5m-21 38l118-94m0 0l4.5-59m0 0L618 210m0 0l-59.5 50m0 0l-8.5 4m0 0l-16.5 8m0 0l18-81m.5.5l-11.5-22m0 0l-51-38m0 0l-51-76.5m0 0l66 72.5m0 0l-13 5.5m12.5-6.5l37.5 43.5m0 0l23 8.5m0 0L550 159m0 0l-46-32.5m61 52.5l-9 82m-6.5-59.5l.5 63.5m10-7l21.5-81.5m0 0l15-91m0 .5L544 0m0 0l34 89.5m0 0l-1 26m0 .5l-12.5 62.5m0 0l23.5-45m1.5-11l-11.5-7m0 .5l18-30m.5 0l-40-53M498 338l71-57m0 0l62-65M381.5 413l-1 16.5m0 0l-22 35m0 0l16-3.5m0 0l4.5-17m0 0l-5-5m5 4.5l12.5-2m0 0l38.5-49m0 0l24-15m0 0l21.5-1m0 0l-1 23m0 0L467 412m0 0l-5 28.5m0 0L440 468m0 0l19.5-77m0 0l15.5-14.5M460 391l14.5 7.5m-15-8L467 412m-7-22l-6.5-13m-3 47.5l-21-32M451 424l-50.5 4.5m50.5-4l-33.5 18m0 0l-17.5-11m18 10.5l23 25.5m0 0l-17 6.5m0 0l-36.5 32.5m0 0L418 441m0 0l-2.5 41M379 443.5l10 17m0 0l-.5 17m0 0l-4.5 17m-9.5-33.5l13 46m-13-24l9 9.5M387 506l-1.5 15.5m0 0l13 70m-12.5-70l-46.5 16m0 0l12.5-17m181-249l-40 51m0 0L456.5 333m-117 204.5l14 6m0 0L385 541m3-8l-34.5 53m29-44.5l-4 22.5m0 .5l-24.5 22m25-22.5l46.5 95.5m0 0l-27-68.5m-59-53l-6.5 17.5m0 0l-25 1.5m0 0l13 12.5m0 0l13-14m0 0l20.5 31.5M334 555.5l20-12.5m-46 14l-5.5-14.5m0 0l-15 7M282 531l15.5 60m0 0l10-34.5m-5.5-13l-19.5-13m-16.5 34l32.5 27m0 0l-11-.5m0 0L265 563.5m0 0l5.5 105.5m0 0l23.5-22.5m0 0l-29-83m17.5 47.5l-12 59.5m17-79.5l28 116m0 0l-22-61.5m22 61.5l-45-38m0 0l19.5 84m0 0l25-46m0 0l7 125m-.5-.5l29-96m0 0l-35.5-30m35.5 30l-5.5-29m0 0l36-35m0 0l44.5-12.5m-44 13l-3-108m-24 21.5l27 86m-27.5-86l-8.5 122m0 0l-26-112m0 0l1-26.5m-1.5 25.5l36-9.5m-35.5 10l-22-3.5m-8 8.5l43.5 46.5M289 599l56.5 109m-.5-1l59.5 51.5m0 0l-23-87m44-12.5l-9.5 74.5m0 0l-31 60m0 0l-35-59m34.5 58.5L322 833.5m0 0L259 780m0 0l31-26m0 0l32 79.5m-63.5-53l-7-77m0 0L257 574m-5.5 129l20-33m-15-96.5l-25.5 72m0 0l2 76.5m0 0l26 58.5m69-150l25.5-45" vector-effect="non-scaling-stroke"/></g></svg>

<?xml version="1.0" standalone="no"?><!-- Generator: Gravit.io --><svg xmlns="http://www.w3.org/2000/svg" xmlns:xlink="http://www.w3.org/1999/xlink" style="isolation:isolate" viewBox="0 0 636 833.5" width="636" height="833.5"><defs><clipPath id="_clipPath_ufUKWNh03Q0ow8cg9bS2G9dNbT4C2wP3"><rect width="636" height="833.5"/></clipPath></defs><g clip-path="url(#_clipPath_ufUKWNh03Q0ow8cg9bS2G9dNbT4C2wP3)"><path d=" M 94.503 39.224 L 41.087 169.658 M 40.5 169.5 L 50.5 231 M 50.5 230.5 L 80.5 309 M 94.5 40.5 L 58.5 165.5 M 40.5 171.5 L 59.5 165 M 59.5 165 L 72 223 M 58.5 165 L 50 229.5 M 72 222.5 L 95 232.5 M 72 222.5 L 122 199 M 122 199.5 L 147 152.5 M 147 152 L 215 98 M 215 98.5 L 162 156.5 M 162 156.5 L 133 211 M 133 211 L 148.5 151 M 122 199 L 133 210.5 M 133 210.5 L 94.5 231.5 M 96.5 231 L 121 199 M 97 232 L 76 243 M 76 243 L 51 229.5 M 77.5 243 L 80 309.5 M -1 254 L 24 304 M -0.5 253 L 30.5 299 M 30.5 298.5 L 80.5 310 M 80.5 310 L 33.5 292.5 M 33.5 292.5 L -0.5 252.5 M 24.5 304 L 132 367 M 132 367 L 79.5 309.5 M 79.5 309.5 L 145 351 M 145 351 L 212.5 381.5 M 212.5 381.5 L 219 368.5 M 229 374.5 L 201 356.5 M 201 356.5 L 143.5 349.5 M 143.5 349.5 L 97 309 M 97 309 L 77.5 241 M 132 366 L 213 381.5 M 213 381.5 L 220 384.5 M 220 384.5 L 248.5 411.5 M 248.5 411.5 L 248 425 M 248 425 L 258 441.5 M 258 441.5 L 262.5 400.5 M 262.5 400.5 L 249.5 410 M 262.5 400.5 L 278 387.5 M 278 387.5 L 229.5 374.5 M 229.5 374.5 L 263 401 M 229.5 373 L 239.5 402.5 M 200 356.5 L 159 294 M 159 294 L 166 216 M 166 216 L 176.5 298 M 176.5 298 L 224.5 356 M 224.5 355.5 L 278 389 M 176.5 297.5 L 194.5 348 M 217.5 289 L 237 364 M 217 289.5 L 244 224 M 244 224 L 230.5 295 M 230.5 295 L 248.5 354 M 248.5 354 L 277.5 388.5 M 217.5 289.5 L 231 296.5 M 231 296 L 232.5 346.5 M 258.5 441 L 300 403 M 300 403 L 263 399.5 M 300 402.5 L 291 392.5 M 291 392.5 L 277.5 388 M 258 441 L 249.5 445.5 M 249.5 445.5 L 241 442 M 241 442 L 175.5 387.5 M 175.5 387.5 L 155.5 386.5 M 155.5 386.5 L 154 407.5 M 154 407.5 L 169 445.5 M 169 445.5 L 192 471 M 192 471 L 230.5 486 M 230.5 486 L 252 505.5 M 252 505.5 L 245.5 488.5 M 245.5 488.5 L 243 467 M 243 467 L 249.5 444.5 M 242.5 442.5 L 224.5 457 M 225 457 L 244.5 467 M 244 467 L 272 468.5 M 272 468.5 L 256.5 440.5 M 215 444 L 222 452 M 222 452 L 251 504.5 M 214 444 L 230 486 M 213.5 444.5 L 191 469 M 214 443.5 L 169 444.5 M 169 444.5 L 168 401 M 168 401 L 175.5 388.5 M 155 388 L 169 400 M 169 400 L 155 407 M 169 400 L 183 434.5 M 182.5 434.5 L 195.5 403 M 183 435.5 L 227 429.5 M 183 435.5 L 213.5 444 M 299.5 403 L 327 403 M 327 402.5 L 337.5 393 M 337.5 393 L 350 388 M 350 388 L 346 416.5 M 346 416.5 L 336.5 394 M 311.5 403 L 272 468.5 M 272 468.5 L 300 402.5 M 257.5 441 L 281 447 M 311.5 403 L 314 497.5 M 314 497.5 L 273 467 M 273 467 L 277 490 M 277 490 L 289 514.5 M 289 514.5 L 314 497 M 314 497 L 358.5 464.5 M 359 464.5 L 337.5 448 M 337.5 448 L 313.5 497 M 337.5 447.5 L 311 401.5 M 272.5 467 L 251 505.5 M 251 505.5 L 265 506.5 M 265 506.5 L 277.5 489.5 M 266.5 506 L 253.5 530.5 M 251.5 506 L 257 574.5 M 265 504.5 L 289.5 515 M 289.5 515 L 266 565.5 M 266 565.5 L 254 529.5 M 288.5 515 L 314 521.5 M 314 521 L 338 511.5 M 338 511.5 L 313.5 495.5 M 338 510.5 L 352.5 520.5 M 352.5 520.5 L 374 482.5 M 374.5 482.5 L 359 463.5 M 359 463.5 L 346.5 415.5 M 311 403.5 L 350 428 M 350.5 428.5 L 381 413 M 381 413 L 346.5 416.5 M 350 388.5 L 381.5 414 M 382.5 413 L 393.5 387.5 M 393.5 387.5 L 379 377 M 379 377 L 375 359 M 375 359 L 348 389.5 M 348 389.5 L 380 376.5 M 394 387.5 L 349 388.5 M 391 355 L 393.5 388.5 M 393.5 388.5 L 416.5 367 M 416.5 367 L 497 339 M 375 359 L 399 298.5 M 399 298.5 L 389 240.5 M 389 240.5 L 411 300.5 M 411 300.5 L 391 355.5 M 391 355.5 L 393.5 312 M 392 355.5 L 416 345 M 416.5 345 L 467 303.5 M 467 303.5 L 486.5 269 M 486.5 269 L 494.5 216 M 494.5 216 L 501 270.5 M 501 270.5 L 481.5 310 M 481.5 310 L 457 332.5 M 457 332.5 L 466.5 304 M 457.5 332.5 L 417 343.5 M 407 349.5 L 424.5 344.5 M 424.5 344.5 L 497 338 M 497 338 L 533.5 271.5 M 512.5 309.5 L 630.5 215.5 M 630.5 215.5 L 635 156.5 M 635 156.5 L 618 210 M 618 210 L 558.5 260 M 558.5 260 L 550 264 M 550 264 L 533.5 272 M 533.5 272 L 551.5 191 M 552 191.5 L 540.5 169.5 M 540.5 169.5 L 489.5 131.5 M 489.5 131.5 L 438.5 55 M 438.5 55 L 504.5 127.5 M 504.5 127.5 L 491.5 133 M 504 126.5 L 541.5 170 M 541.5 170 L 564.5 178.5 M 564.5 178.5 L 550 159 M 550 159 L 504 126.5 M 565 179 L 556 261 M 549.5 201.5 L 550 265 M 560 258 L 581.5 176.5 M 581.5 176.5 L 596.5 85.5 M 596.5 86 L 544 0 M 544 0 L 578 89.5 M 578 89.5 L 577 115.5 M 577 116 L 564.5 178.5 M 564.5 178.5 L 588 133.5 M 589.5 122.5 L 578 115.5 M 578 116 L 596 86 M 596.5 86 L 556.5 33 M 498 338 L 569 281 M 569 281 L 631 216 M 381.5 413 L 380.5 429.5 M 380.5 429.5 L 358.5 464.5 M 358.5 464.5 L 374.5 461 M 374.5 461 L 379 444 M 379 444 L 374 439 M 379 443.5 L 391.5 441.5 M 391.5 441.5 L 430 392.5 M 430 392.5 L 454 377.5 M 454 377.5 L 475.5 376.5 M 475.5 376.5 L 474.5 399.5 M 474.5 399.5 L 467 412 M 467 412 L 462 440.5 M 462 440.5 L 440 468 M 440 468 L 459.5 391 M 459.5 391 L 475 376.5 M 460 391 L 474.5 398.5 M 459.5 390.5 L 467 412 M 460 390 L 453.5 377 M 450.5 424.5 L 429.5 392.5 M 451 424 L 400.5 428.5 M 451 424.5 L 417.5 442.5 M 417.5 442.5 L 400 431.5 M 418 442 L 441 467.5 M 441 467.5 L 424 474 M 424 474 L 387.5 506.5 M 387.5 506.5 L 418 441 M 418 441 L 415.5 482 M 379 443.5 L 389 460.5 M 389 460.5 L 388.5 477.5 M 388.5 477.5 L 384 494.5 M 374.5 461 L 387.5 507 M 374.5 483 L 383.5 492.5 M 387 506 L 385.5 521.5 M 385.5 521.5 L 398.5 591.5 M 386 521.5 L 339.5 537.5 M 339.5 537.5 L 352 520.5 M 533 271.5 L 493 322.5 M 493 322.5 L 456.5 333 M 339.5 537.5 L 353.5 543.5 M 353.5 543.5 L 385 541 M 388 533 L 353.5 586 M 382.5 541.5 L 378.5 564 M 378.5 564.5 L 354 586.5 M 379 564 L 425.5 659.5 M 425.5 659.5 L 398.5 591 M 339.5 538 L 333 555.5 M 333 555.5 L 308 557 M 308 557 L 321 569.5 M 321 569.5 L 334 555.5 M 334 555.5 L 354.5 587 M 334 555.5 L 354 543 M 308 557 L 302.5 542.5 M 302.5 542.5 L 287.5 549.5 M 282 531 L 297.5 591 M 297.5 591 L 307.5 556.5 M 302 543.5 L 282.5 530.5 M 266 564.5 L 298.5 591.5 M 298.5 591.5 L 287.5 591 M 287.5 591 L 265 563.5 M 265 563.5 L 270.5 669 M 270.5 669 L 294 646.5 M 294 646.5 L 265 563.5 M 282.5 611 L 270.5 670.5 M 287.5 591 L 315.5 707 M 315.5 707 L 293.5 645.5 M 315.5 707 L 270.5 669 M 270.5 669 L 290 753 M 290 753 L 315 707 M 315 707 L 322 832 M 321.5 831.5 L 350.5 735.5 M 350.5 735.5 L 315 705.5 M 350.5 735.5 L 345 706.5 M 345 706.5 L 381 671.5 M 381 671.5 L 425.5 659 M 381.5 672 L 378.5 564 M 354.5 585.5 L 381.5 671.5 M 354 585.5 L 345.5 707.5 M 345.5 707.5 L 319.5 595.5 M 319.5 595.5 L 320.5 569 M 319 594.5 L 355 585 M 319.5 595 L 297.5 591.5 M 289.5 600 L 333 646.5 M 289 599 L 345.5 708 M 345 707 L 404.5 758.5 M 404.5 758.5 L 381.5 671.5 M 425.5 659 L 416 733.5 M 416 733.5 L 385 793.5 M 385 793.5 L 350 734.5 M 384.5 793 L 322 833.5 M 322 833.5 L 259 780 M 259 780 L 290 754 M 290 754 L 322 833.5 M 258.5 780.5 L 251.5 703.5 M 251.5 703.5 L 257 574 M 251.5 703 L 271.5 670 M 256.5 573.5 L 231 645.5 M 231 645.5 L 233 722 M 233 722 L 259 780.5 M 328 630.5 L 353.5 585.5" fill-rule="evenodd" fill="none" vector-effect="non-scaling-stroke" stroke-width="1" stroke="rgb(0,0,0)" stroke-linejoin="miter" stroke-linecap="square" stroke-miterlimit="3"/></g></svg>
